assets/svg/icon_block_eye_on.svg

<svg width="24" height="24" viewBox="0 0 24 24" fill="none" xmlns="http://www.w3.org/2000/svg">
<path d="M4.47583 12.9336V12.9381C4.45057 13.0334 4.40677 13.1227 4.34695 13.2011C4.28713 13.2794 4.21246 13.3452 4.1272 13.3946C4.04194 13.4441 3.94777 13.4762 3.85008 13.4893C3.75238 13.5023 3.65307 13.496 3.55783 13.4706C2.91133 13.2996 3.02533 12.5541 3.02533 12.5541L3.05233 12.4611C3.05233 12.4611 3.09133 12.3351 3.12283 12.2436C3.50776 11.1643 4.07443 10.1588 4.79833 9.27059C6.14383 7.62959 8.40733 5.99609 11.9998 5.99609C15.5923 5.99609 17.8558 7.62959 19.2028 9.27059C19.9267 10.1588 20.4934 11.1643 20.8783 12.2436C20.9106 12.3364 20.9406 12.4299 20.9683 12.5241L20.9728 12.5436V12.5496L20.9743 12.5526C21.0219 12.7435 20.9926 12.9454 20.8926 13.1149C20.7927 13.2844 20.6302 13.4078 20.4401 13.4586C20.25 13.5093 20.0476 13.4834 19.8765 13.3863C19.7054 13.2892 19.5793 13.1288 19.5253 12.9396L19.5238 12.9336L19.5118 12.8961C19.4268 12.6306 19.3266 12.3702 19.2118 12.1161C18.9061 11.4363 18.5128 10.7994 18.0418 10.2216C16.9288 8.86409 15.0658 7.49609 11.9998 7.49609C8.93383 7.49609 7.07233 8.86409 5.95783 10.2216C5.34658 10.9723 4.86726 11.8214 4.54033 12.7326C4.5218 12.7868 4.50429 12.8413 4.48783 12.8961L4.47583 12.9336ZM11.9998 10.4961C11.0053 10.4961 10.0514 10.8912 9.34818 11.5944C8.64492 12.2977 8.24983 13.2515 8.24983 14.2461C8.24983 15.2407 8.64492 16.1945 9.34818 16.8977C10.0514 17.601 11.0053 17.9961 11.9998 17.9961C12.9944 17.9961 13.9482 17.601 14.6515 16.8977C15.3547 16.1945 15.7498 15.2407 15.7498 14.2461C15.7498 13.2515 15.3547 12.2977 14.6515 11.5944C13.9482 10.8912 12.9944 10.4961 11.9998 10.4961ZM9.74983 14.2461C9.74983 13.6494 9.98688 13.0771 10.4088 12.6551C10.8308 12.2331 11.4031 11.9961 11.9998 11.9961C12.5966 11.9961 13.1689 12.2331 13.5908 12.6551C14.0128 13.0771 14.2498 13.6494 14.2498 14.2461C14.2498 14.8428 14.0128 15.4151 13.5908 15.8371C13.1689 16.259 12.5966 16.4961 11.9998 16.4961C11.4031 16.4961 10.8308 16.259 10.4088 15.8371C9.98688 15.4151 9.74983 14.8428 9.74983 14.2461Z" fill="#5A5E66"/>
</svg>

<svg xmlns="http://www.w3.org/2000/svg" width="24" height="24" fill="none"><path fill="#5A5E66" d="M4.476 12.934v.004a.75.75 0 0 1-.918.533c-.647-.171-.533-.917-.533-.917l.027-.093.07-.217A10 10 0 0 1 4.799 9.27C6.144 7.63 8.408 5.996 12 5.996s5.856 1.634 7.203 3.275c.724.888 1.29 1.893 1.675 2.973q.05.139.09.28l.005.02v.006l.001.003a.75.75 0 0 1-1.449.387l-.001-.006-.012-.038a7 7 0 0 0-.3-.78 8.6 8.6 0 0 0-1.17-1.894C16.929 8.864 15.066 7.496 12 7.496s-4.928 1.368-6.042 2.726a8.6 8.6 0 0 0-1.418 2.51l-.052.164zM12 10.496a3.75 3.75 0 1 0 0 7.5 3.75 3.75 0 0 0 0-7.5m-2.25 3.75a2.25 2.25 0 1 1 4.5 0 2.25 2.25 0 0 1-4.5 0"/></svg>
